; generated by Slic3r 0.9.9 on 2014-02-28 at 12:04:17

; layer_height = 0.3
; perimeters = 3
; top_solid_layers = 3
; bottom_solid_layers = 3
; fill_density = 0.15
; perimeter_speed = 30
; infill_speed = 60
; travel_speed = 130
; nozzle_diameter = 0.4
; filament_diameter = 1.75
; extrusion_multiplier = 1
; perimeters extrusion width = 0.42mm
; infill extrusion width = 0.42mm
; solid infill extrusion width = 0.42mm
; top infill extrusion width = 0.42mm

G21 ; set units to millimeters
G1 Z5 F800 ; lift nozzle
G90 ; use absolute coordinates
G92 E0
M82 ; use absolute distances for extrusion
G1 F1200.000 E-1.00000
G92 E0
G1 Z0.300 F7800.000
G1 X-50.000 Y51.840
G1 F1200.000 E1.00000
G1 X-50.540 Y51.820 F540.000 E1.02823
G1 X-51.330 Y51.710 E1.06990
G1 X-51.860 Y51.580 E1.09841
G1 X-52.370 Y51.420 E1.12634
G1 X-52.620 Y51.320 E1.14041
G1 X-53.340 Y50.970 E1.18223
G1 X-53.800 Y50.690 E1.21037
G1 X-54.440 Y50.200 E1.25248
G1 X-54.840 Y49.840 E1.28059
G1 X-55.200 Y49.440 E1.30871
G1 X-55.690 Y48.800 E1.35082
G1 X-55.970 Y48.340 E1.37895
G1 X-56.210 Y47.860 E1.40699
G1 X-56.420 Y47.370 E1.43484
G1 X-56.650 Y46.600 E1.47683
G1 X-56.710 Y46.330 E1.49128
G1 X-56.820 Y45.540 E1.53295
G1 X-56.840 Y45.000 E1.56118
G1 X-56.840 Y-45.000 E6.26322
G1 X-56.820 Y-45.540 E6.29146
G1 X-56.710 Y-46.330 E6.33313
G1 X-56.580 Y-46.860 E6.36164
G1 X-56.420 Y-47.370 E6.38956
G1 X-56.320 Y-47.620 E6.40363
G1 X-55.970 Y-48.340 E6.44546
G1 X-55.690 Y-48.800 E6.47359
G1 X-55.200 Y-49.440 E6.51570
G1 X-54.840 Y-49.840 E6.54382
G1 X-54.440 Y-50.200 E6.57193
G1 X-53.800 Y-50.690 E6.61404
G1 X-53.340 Y-50.970 E6.64218
G1 X-52.620 Y-51.320 E6.68400
G1 X-52.370 Y-51.420 E6.69807
G1 X-51.860 Y-51.580 E6.72600
G1 X-51.330 Y-51.710 E6.75451
G1 X-50.540 Y-51.820 E6.79618
G1 X-50.000 Y-51.840 E6.82441
G1 X50.000 Y-51.840 E12.04890
G1 X50.540 Y-51.820 E12.07713
G1 X51.330 Y-51.710 E12.11880
G1 X51.860 Y-51.580 E12.14731
G1 X52.370 Y-51.420 E12.17524
G1 X52.620 Y-51.320 E12.18931
G1 X53.340 Y-50.970 E12.23113
G1 X53.800 Y-50.690 E12.25927
G1 X54.440 Y-50.200 E12.30138
G1 X54.840 Y-49.840 E12.32949
G1 X55.200 Y-49.440 E12.35761
G1 X55.690 Y-48.800 E12.39972
G1 X55.970 Y-48.340 E12.42786
G1 X56.320 Y-47.620 E12.46968
G1 X56.420 Y-47.370 E12.48375
G1 X56.580 Y-46.860 E12.51167
G1 X56.710 Y-46.330 E12.54018
G1 X56.820 Y-45.540 E12.58186
G1 X56.840 Y-45.000 E12.61009
G1 X56.840 Y45.000 E17.31213
G1 X56.820 Y45.540 E17.34036
G1 X56.710 Y46.330 E17.38203
G1 X56.580 Y46.860 E17.41054
G1 X56.420 Y47.370 E17.43847
G1 X56.320 Y47.620 E17.45253
G1 X55.970 Y48.340 E17.49436
G1 X55.690 Y48.800 E17.52249
G1 X55.200 Y49.440 E17.56461
G1 X54.840 Y49.840 E17.59272
G1 X54.440 Y50.200 E17.62084
G1 X53.800 Y50.690 E17.66295
G1 X53.340 Y50.970 E17.69108
G1 X52.620 Y51.320 E17.73291
G1 X52.370 Y51.420 E17.74698
G1 X51.860 Y51.580 E17.77490
G1 X51.330 Y51.710 E17.80341
G1 X50.540 Y51.820 E17.84508
G1 X50.000 Y51.840 E17.87332
G1 X-49.937 Y51.840 E23.09452
G1 X-50.000 Y51.420 F7800.000
G1 X-50.530 Y51.400 F540.000 E23.12223
G1 X-51.060 Y51.330 E23.15016
G1 X-51.580 Y51.220 E23.17793
G1 X-52.330 Y50.980 E23.21907
G1 X-52.820 Y50.770 E23.24692
G1 X-53.290 Y50.510 E23.27499
G1 X-53.940 Y50.070 E23.31599
G1 X-54.350 Y49.720 E23.34416
G1 X-54.720 Y49.350 E23.37150
G1 X-55.070 Y48.940 E23.39966
G1 X-55.510 Y48.290 E23.44067
G1 X-55.770 Y47.820 E23.46873
G1 X-55.980 Y47.330 E23.49658
G1 X-56.220 Y46.580 E23.53772
G1 X-56.330 Y46.060 E23.56549
G1 X-56.400 Y45.530 E23.59342
G1 X-56.420 Y45.000 E23.62113
G1 X-56.420 Y-45.000 E28.32317
G1 X-56.400 Y-45.530 E28.35088
G1 X-56.280 Y-46.320 E28.39263
G1 X-56.150 Y-46.830 E28.42012
G1 X-55.880 Y-47.580 E28.46177
G1 X-55.650 Y-48.060 E28.48958
G1 X-55.220 Y-48.730 E28.53117
G1 X-54.900 Y-49.150 E28.55876
G1 X-54.540 Y-49.540 E28.58649
G1 X-54.150 Y-49.900 E28.61422
G1 X-53.730 Y-50.220 E28.64180
G1 X-53.060 Y-50.650 E28.68339
G1 X-52.580 Y-50.880 E28.71120
G1 X-51.830 Y-51.150 E28.75285
G1 X-51.320 Y-51.280 E28.78034
G1 X-50.530 Y-51.400 E28.82209
G1 X-50.000 Y-51.420 E28.84980
G1 X50.000 Y-51.420 E34.07429
G1 X50.530 Y-51.400 E34.10200
G1 X51.320 Y-51.280 E34.14375
G1 X51.830 Y-51.150 E34.17124
G1 X52.580 Y-50.880 E34.21289
G1 X53.060 Y-50.650 E34.24070
G1 X53.730 Y-50.220 E34.28229
G1 X54.150 Y-49.900 E34.30988
G1 X54.540 Y-49.540 E34.33761
G1 X54.900 Y-49.150 E34.36533
G1 X55.220 Y-48.730 E34.39292
G1 X55.650 Y-48.060 E34.43451
G1 X55.880 Y-47.580 E34.46232
G1 X56.150 Y-46.830 E34.50397
G1 X56.280 Y-46.320 E34.53146
G1 X56.400 Y-45.530 E34.57321
G1 X56.420 Y-45.000 E34.60092
G1 X56.420 Y45.000 E39.30296
G1 X56.400 Y45.530 E39.33067
G1 X56.280 Y46.320 E39.37242
G1 X56.150 Y46.830 E39.39991
G1 X55.880 Y47.580 E39.44156
G1 X55.650 Y48.060 E39.46937
G1 X55.220 Y48.730 E39.51096
G1 X54.900 Y49.150 E39.53855
G1 X54.540 Y49.540 E39.56628
G1 X54.150 Y49.900 E39.59401
G1 X53.730 Y50.220 E39.62159
G1 X53.060 Y50.650 E39.66318
G1 X52.580 Y50.880 E39.69099
G1 X51.830 Y51.150 E39.73264
G1 X51.320 Y51.280 E39.76013
G1 X50.530 Y51.400 E39.80188
G1 X50.000 Y51.420 E39.82959
G1 X-49.937 Y51.420 E45.05080
G1 F1200.000 E44.05080
G92 E0
G1 X-6.886 Y35.199 F7800.000
G1 F1200.000 E1.00000
G1 X49.682 Y35.194 F378.000 E3.95538
G1 X49.804 Y35.312 E3.96424
G1 X49.804 Y44.687 E4.45404
G1 X49.682 Y44.806 E4.46290
G1 X-49.682 Y44.806 E9.65418
G1 X-49.804 Y44.687 E9.66305
G1 X-49.804 Y35.312 E10.15284
G1 X-49.682 Y35.194 E10.16170
G1 X-6.886 Y35.199 E12.39761
G1 F1200.000 E11.39761
G92 E0
G1 X-6.886 Y15.199 F7800.000
G1 F1200.000 E1.00000
G1 X49.682 Y15.194 F378.000 E3.95538
G1 X49.804 Y15.313 E3.96424
G1 X49.804 Y24.688 E4.45404
G1 X49.682 Y24.806 E4.46290
G1 X-49.682 Y24.806 E9.65418
G1 X-49.804 Y24.688 E9.66305
G1 X-49.804 Y15.313 E10.15284
G1 X-49.682 Y15.194 E10.16170
G1 X-6.886 Y15.199 E12.39761
G1 F1200.000 E11.39761
G92 E0
G1 X-6.886 Y-4.801 F7800.000
G1 F1200.000 E1.00000
G1 X49.682 Y-4.806 F378.000 E3.95538
G1 X49.804 Y-4.688 E3.96424
G1 X49.804 Y4.688 E4.45404
G1 X49.682 Y4.806 E4.46290
G1 X-49.682 Y4.806 E9.65418
G1 X-49.804 Y4.688 E9.66305
G1 X-49.804 Y-4.688 E10.15284
G1 X-49.682 Y-4.806 E10.16170
G1 X-6.886 Y-4.801 E12.39761
G1 F1200.000 E11.39761
G92 E0
G1 X-6.886 Y-24.801 F7800.000
G1 F1200.000 E1.00000
G1 X49.682 Y-24.806 F378.000 E3.95538
G1 X49.804 Y-24.687 E3.96424
G1 X49.804 Y-15.312 E4.45404
G1 X49.682 Y-15.194 E4.46290
G1 X-49.682 Y-15.194 E9.65418
G1 X-49.804 Y-15.312 E9.66305
G1 X-49.804 Y-24.687 E10.15284
G1 X-49.682 Y-24.806 E10.16170
G1 X-6.886 Y-24.801 E12.39761
G1 F1200.000 E11.39761
G92 E0
G1 X-6.886 Y-44.801 F7800.000
G1 F1200.000 E1.00000
G1 X49.682 Y-44.806 F378.000 E3.95538
G1 X49.804 Y-44.688 E3.96424
G1 X49.804 Y-35.312 E4.45404
G1 X49.682 Y-35.194 E4.46290
G1 X-49.682 Y-35.194 E9.65418
G1 X-49.804 Y-35.312 E9.66305
G1 X-49.804 Y-44.688 E10.15284
G1 X-49.682 Y-44.806 E10.16170
G1 X-6.886 Y-44.801 E12.39761
G1 F1200.000 E11.39761
G92 E0
G1 Z0.600 F7800.000
G1 X-6.886 Y35.199
G1 F1200.000 E1.00000
G1 X49.682 Y35.194 F1260.000 E3.95538
G1 X49.804 Y35.312 E3.96424
G1 X49.804 Y44.687 E4.45404
G1 X49.682 Y44.806 E4.46290
G1 X-49.682 Y44.806 E9.65418
G1 X-49.804 Y44.687 E9.66305
G1 X-49.804 Y35.312 E10.15284
G1 X-49.682 Y35.194 E10.16170
G1 X-6.886 Y35.199 E12.39761
G1 F1200.000 E11.39761
G92 E0
G1 X-6.886 Y15.199 F7800.000
G1 F1200.000 E1.00000
G1 X49.682 Y15.194 F1260.000 E3.95538
G1 X49.804 Y15.313 E3.96424
G1 X49.804 Y24.688 E4.45404
G1 X49.682 Y24.806 E4.46290
G1 X-49.682 Y24.806 E9.65418
G1 X-49.804 Y24.688 E9.66305
G1 X-49.804 Y15.313 E10.15284
G1 X-49.682 Y15.194 E10.16170
G1 X-6.886 Y15.199 E12.39761
G1 F1200.000 E11.39761
G92 E0
G1 X-6.886 Y-4.801 F7800.000
G1 F1200.000 E1.00000
G1 X49.682 Y-4.806 F1260.000 E3.95538
G1 X49.804 Y-4.688 E3.96424
G1 X49.804 Y4.688 E4.45404
G1 X49.682 Y4.806 E4.46290
G1 X-49.682 Y4.806 E9.65418
G1 X-49.804 Y4.688 E9.66305
G1 X-49.804 Y-4.688 E10.15284
G1 X-49.682 Y-4.806 E10.16170
G1 X-6.886 Y-4.801 E12.39761
G1 F1200.000 E11.39761
G92 E0
G1 X-6.886 Y-24.801 F7800.000
G1 F1200.000 E1.00000
G1 X49.682 Y-24.806 F1260.000 E3.95538
G1 X49.804 Y-24.687 E3.96424
G1 X49.804 Y-15.312 E4.45404
G1 X49.682 Y-15.194 E4.46290
G1 X-49.682 Y-15.194 E9.65418
G1 X-49.804 Y-15.312 E9.66305
G1 X-49.804 Y-24.687 E10.15284
G1 X-49.682 Y-24.806 E10.16170
G1 X-6.886 Y-24.801 E12.39761
G1 F1200.000 E11.39761
G92 E0
G1 X-6.886 Y-44.801 F7800.000
G1 F1200.000 E1.00000
G1 X49.682 Y-44.806 F1260.000 E3.95538
G1 X49.804 Y-44.688 E3.96424
G1 X49.804 Y-35.312 E4.45404
G1 X49.682 Y-35.194 E4.46290
G1 X-49.682 Y-35.194 E9.65418
G1 X-49.804 Y-35.312 E9.66305
G1 X-49.804 Y-44.688 E10.15284
G1 X-49.682 Y-44.806 E10.16170
G1 X-6.886 Y-44.801 E12.39761
G1 F1200.000 E11.39761
G92 E0
G1 Z0.900 F7800.000
G1 X-6.886 Y35.199
G1 F1200.000 E1.00000
G1 X49.682 Y35.194 F1260.000 E3.95538
G1 X49.804 Y35.312 E3.96424
G1 X49.804 Y44.687 E4.45404
G1 X49.682 Y44.806 E4.46290
G1 X-49.682 Y44.806 E9.65418
G1 X-49.804 Y44.687 E9.66305
G1 X-49.804 Y35.312 E10.15284
G1 X-49.682 Y35.194 E10.16170
G1 X-6.886 Y35.199 E12.39761
G1 F1200.000 E11.39761
G92 E0
G1 X-6.886 Y15.199 F7800.000
G1 F1200.000 E1.00000
G1 X49.682 Y15.194 F1260.000 E3.95538
G1 X49.804 Y15.313 E3.96424
G1 X49.804 Y24.688 E4.45404
G1 X49.682 Y24.806 E4.46290
G1 X-49.682 Y24.806 E9.65418
G1 X-49.804 Y24.688 E9.66305
G1 X-49.804 Y15.313 E10.15284
G1 X-49.682 Y15.194 E10.16170
G1 X-6.886 Y15.199 E12.39761
G1 F1200.000 E11.39761
G92 E0
G1 X-6.886 Y-4.801 F7800.000
G1 F1200.000 E1.00000
G1 X49.682 Y-4.806 F1260.000 E3.95538
G1 X49.804 Y-4.688 E3.96424
G1 X49.804 Y4.688 E4.45404
G1 X49.682 Y4.806 E4.46290
G1 X-49.682 Y4.806 E9.65418
G1 X-49.804 Y4.688 E9.66305
G1 X-49.804 Y-4.688 E10.15284
G1 X-49.682 Y-4.806 E10.16170
G1 X-6.886 Y-4.801 E12.39761
G1 F1200.000 E11.39761
G92 E0
G1 X-6.886 Y-24.801 F7800.000
G1 F1200.000 E1.00000
G1 X49.682 Y-24.806 F1260.000 E3.95538
G1 X49.804 Y-24.687 E3.96424
G1 X49.804 Y-15.312 E4.45404
G1 X49.682 Y-15.194 E4.46290
G1 X-49.682 Y-15.194 E9.65418
G1 X-49.804 Y-15.312 E9.66305
G1 X-49.804 Y-24.687 E10.15284
G1 X-49.682 Y-24.806 E10.16170
G1 X-6.886 Y-24.801 E12.39761
G1 F1200.000 E11.39761
G92 E0
G1 X-6.886 Y-44.801 F7800.000
G1 F1200.000 E1.00000
G1 X49.682 Y-44.806 F1260.000 E3.95538
G1 X49.804 Y-44.688 E3.96424
G1 X49.804 Y-35.312 E4.45404
G1 X49.682 Y-35.194 E4.46290
G1 X-49.682 Y-35.194 E9.65418
G1 X-49.804 Y-35.312 E9.66305
G1 X-49.804 Y-44.688 E10.15284
G1 X-49.682 Y-44.806 E10.16170
G1 X-6.886 Y-44.801 E12.39761
G1 F1200.000 E11.39761
G92 E0
G1 Z1.200 F7800.000
G1 X-6.886 Y35.199
G1 F1200.000 E1.00000
G1 X49.682 Y35.194 F1260.000 E3.95538
G1 X49.804 Y35.312 E3.96424
G1 X49.804 Y44.687 E4.45404
G1 X49.682 Y44.806 E4.46290
G1 X-49.682 Y44.806 E9.65418
G1 X-49.804 Y44.687 E9.66305
G1 X-49.804 Y35.312 E10.15284
G1 X-49.682 Y35.194 E10.16170
G1 X-6.886 Y35.199 E12.39761
G1 F1200.000 E11.39761
G92 E0
G1 X-6.886 Y15.199 F7800.000
G1 F1200.000 E1.00000
G1 X49.682 Y15.194 F1260.000 E3.95538
G1 X49.804 Y15.313 E3.96424
G1 X49.804 Y24.688 E4.45404
G1 X49.682 Y24.806 E4.46290
G1 X-49.682 Y24.806 E9.65418
G1 X-49.804 Y24.688 E9.66305
G1 X-49.804 Y15.313 E10.15284
G1 X-49.682 Y15.194 E10.16170
G1 X-6.886 Y15.199 E12.39761
G1 F1200.000 E11.39761
G92 E0
G1 X-6.886 Y-4.801 F7800.000
G1 F1200.000 E1.00000
G1 X49.682 Y-4.806 F1260.000 E3.95538
G1 X49.804 Y-4.688 E3.96424
G1 X49.804 Y4.688 E4.45404
G1 X49.682 Y4.806 E4.46290
G1 X-49.682 Y4.806 E9.65418
G1 X-49.804 Y4.688 E9.66305
G1 X-49.804 Y-4.688 E10.15284
G1 X-49.682 Y-4.806 E10.16170
G1 X-6.886 Y-4.801 E12.39761
G1 F1200.000 E11.39761
G92 E0
G1 X-6.886 Y-24.801 F7800.000
G1 F1200.000 E1.00000
G1 X49.682 Y-24.806 F1260.000 E3.95538
G1 X49.804 Y-24.687 E3.96424
G1 X49.804 Y-15.312 E4.45404
G1 X49.682 Y-15.194 E4.46290
G1 X-49.682 Y-15.194 E9.65418
G1 X-49.804 Y-15.312 E9.66305
G1 X-49.804 Y-24.687 E10.15284
G1 X-49.682 Y-24.806 E10.16170
G1 X-6.886 Y-24.801 E12.39761
G1 F1200.000 E11.39761
G92 E0
G1 X-6.886 Y-44.801 F7800.000
G1 F1200.000 E1.00000
G1 X49.682 Y-44.806 F1260.000 E3.95538
G1 X49.804 Y-44.688 E3.96424
G1 X49.804 Y-35.312 E4.45404
G1 X49.682 Y-35.194 E4.46290
G1 X-49.682 Y-35.194 E9.65418
G1 X-49.804 Y-35.312 E9.66305
G1 X-49.804 Y-44.688 E10.15284
G1 X-49.682 Y-44.806 E10.16170
G1 X-6.886 Y-44.801 E12.39761
G1 F1200.000 E11.39761
G92 E0
G1 Z1.500 F7800.000
G1 X-6.886 Y35.199
G1 F1200.000 E1.00000
G1 X49.682 Y35.194 F1260.000 E3.95538
G1 X49.804 Y35.312 E3.96424
G1 X49.804 Y44.687 E4.45404
G1 X49.682 Y44.806 E4.46290
G1 X-49.682 Y44.806 E9.65418
G1 X-49.804 Y44.687 E9.66305
G1 X-49.804 Y35.312 E10.15284
G1 X-49.682 Y35.194 E10.16170
G1 X-6.886 Y35.199 E12.39761
G1 F1200.000 E11.39761
G92 E0
G1 X-6.886 Y15.199 F7800.000
G1 F1200.000 E1.00000
G1 X49.682 Y15.194 F1260.000 E3.95538
G1 X49.804 Y15.313 E3.96424
G1 X49.804 Y24.688 E4.45404
G1 X49.682 Y24.806 E4.46290
G1 X-49.682 Y24.806 E9.65418
G1 X-49.804 Y24.688 E9.66305
G1 X-49.804 Y15.313 E10.15284
G1 X-49.682 Y15.194 E10.16170
G1 X-6.886 Y15.199 E12.39761
G1 F1200.000 E11.39761
G92 E0
G1 X-6.886 Y-4.801 F7800.000
G1 F1200.000 E1.00000
G1 X49.682 Y-4.806 F1260.000 E3.95538
G1 X49.804 Y-4.688 E3.96424
G1 X49.804 Y4.688 E4.45404
G1 X49.682 Y4.806 E4.46290
G1 X-49.682 Y4.806 E9.65418
G1 X-49.804 Y4.688 E9.66305
G1 X-49.804 Y-4.688 E10.15284
G1 X-49.682 Y-4.806 E10.16170
G1 X-6.886 Y-4.801 E12.39761
G1 F1200.000 E11.39761
G92 E0
G1 X-6.886 Y-24.801 F7800.000
G1 F1200.000 E1.00000
G1 X49.682 Y-24.806 F1260.000 E3.95538
G1 X49.804 Y-24.687 E3.96424
G1 X49.804 Y-15.312 E4.45404
G1 X49.682 Y-15.194 E4.46290
G1 X-49.682 Y-15.194 E9.65418
G1 X-49.804 Y-15.312 E9.66305
G1 X-49.804 Y-24.687 E10.15284
G1 X-49.682 Y-24.806 E10.16170
G1 X-6.886 Y-24.801 E12.39761
G1 F1200.000 E11.39761
G92 E0
G1 X-6.886 Y-44.801 F7800.000
G1 F1200.000 E1.00000
G1 X49.682 Y-44.806 F1260.000 E3.95538
G1 X49.804 Y-44.688 E3.96424
G1 X49.804 Y-35.312 E4.45404
G1 X49.682 Y-35.194 E4.46290
G1 X-49.682 Y-35.194 E9.65418
G1 X-49.804 Y-35.312 E9.66305
G1 X-49.804 Y-44.688 E10.15284
G1 X-49.682 Y-44.806 E10.16170
G1 X-6.886 Y-44.801 E12.39761
G1 F1200.000 E11.39761
G92 E0
G1 Z1.800 F7800.000
G1 X-6.886 Y35.199
G1 F1200.000 E1.00000
G1 X49.682 Y35.194 F1260.000 E3.95538
G1 X49.804 Y35.312 E3.96424
G1 X49.804 Y44.687 E4.45404
G1 X49.682 Y44.806 E4.46290
G1 X-49.682 Y44.806 E9.65418
G1 X-49.804 Y44.687 E9.66305
G1 X-49.804 Y35.312 E10.15284
G1 X-49.682 Y35.194 E10.16170
G1 X-6.886 Y35.199 E12.39761
G1 F1200.000 E11.39761
G92 E0
G1 X-6.886 Y15.199 F7800.000
G1 F1200.000 E1.00000
G1 X49.682 Y15.194 F1260.000 E3.95538
G1 X49.804 Y15.313 E3.96424
G1 X49.804 Y24.688 E4.45404
G1 X49.682 Y24.806 E4.46290
G1 X-49.682 Y24.806 E9.65418
G1 X-49.804 Y24.688 E9.66305
G1 X-49.804 Y15.313 E10.15284
G1 X-49.682 Y15.194 E10.16170
G1 X-6.886 Y15.199 E12.39761
G1 F1200.000 E11.39761
G92 E0
G1 X-6.886 Y-4.801 F7800.000
G1 F1200.000 E1.00000
G1 X49.682 Y-4.806 F1260.000 E3.95538
G1 X49.804 Y-4.688 E3.96424
G1 X49.804 Y4.688 E4.45404
G1 X49.682 Y4.806 E4.46290
G1 X-49.682 Y4.806 E9.65418
G1 X-49.804 Y4.688 E9.66305
G1 X-49.804 Y-4.688 E10.15284
G1 X-49.682 Y-4.806 E10.16170
G1 X-6.886 Y-4.801 E12.39761
G1 F1200.000 E11.39761
G92 E0
G1 X-6.886 Y-24.801 F7800.000
G1 F1200.000 E1.00000
G1 X49.682 Y-24.806 F1260.000 E3.95538
G1 X49.804 Y-24.687 E3.96424
G1 X49.804 Y-15.312 E4.45404
G1 X49.682 Y-15.194 E4.46290
G1 X-49.682 Y-15.194 E9.65418
G1 X-49.804 Y-15.312 E9.66305
G1 X-49.804 Y-24.687 E10.15284
G1 X-49.682 Y-24.806 E10.16170
G1 X-6.886 Y-24.801 E12.39761
G1 F1200.000 E11.39761
G92 E0
G1 X-6.886 Y-44.801 F7800.000
G1 F1200.000 E1.00000
G1 X49.682 Y-44.806 F1260.000 E3.95538
G1 X49.804 Y-44.688 E3.96424
G1 X49.804 Y-35.312 E4.45404
G1 X49.682 Y-35.194 E4.46290
G1 X-49.682 Y-35.194 E9.65418
G1 X-49.804 Y-35.312 E9.66305
G1 X-49.804 Y-44.688 E10.15284
G1 X-49.682 Y-44.806 E10.16170
G1 X-6.886 Y-44.801 E12.39761
G1 F1200.000 E11.39761
G92 E0
G1 Z2.100 F7800.000
G1 X-6.886 Y35.199
G1 F1200.000 E1.00000
G1 X49.682 Y35.194 F1260.000 E3.95538
G1 X49.804 Y35.312 E3.96424
G1 X49.804 Y44.687 E4.45404
G1 X49.682 Y44.806 E4.46290
G1 X-49.682 Y44.806 E9.65418
G1 X-49.804 Y44.687 E9.66305
G1 X-49.804 Y35.312 E10.15284
