; generated by Slic3r 0.9.9 on 2014-03-07 at 20:34:07

; layer_height = 0.3
; perimeters = 3
; top_solid_layers = 3
; bottom_solid_layers = 3
; fill_density = 0.15
; perimeter_speed = 30
; infill_speed = 60
; travel_speed = 130
; nozzle_diameter = 0.4
; filament_diameter = 1.75
; extrusion_multiplier = 1
; perimeters extrusion width = 0.42mm
; infill extrusion width = 0.42mm
; solid infill extrusion width = 0.42mm
; top infill extrusion width = 0.42mm

G21 ; set units to millimeters
G1 Z5 F800 ; lift nozzle
G90 ; use absolute coordinates
G92 E0
M82 ; use absolute distances for extrusion
G1 F1200.000 E-1.00000
G92 E0
G1 Z0.300 F7800.000
G1 X-6.505 Y-59.516
G1 F1200.000 E1.00000
G1 X0.099 Y-59.920 F378.000 E1.34563
G1 X7.321 Y-59.471 E1.72367
G1 X14.436 Y-58.155 E2.10170
G1 X21.340 Y-55.991 E2.47973
G1 X27.934 Y-53.011 E2.85776
G1 X34.120 Y-49.257 E3.23580
G1 X39.808 Y-44.785 E3.61383
G1 X44.916 Y-39.660 E3.99186
G1 X49.369 Y-33.957 E4.36990
G1 X53.102 Y-27.759 E4.74793
G1 X56.061 Y-21.156 E5.12596
G1 X58.203 Y-14.244 E5.50399
G1 X59.495 Y-7.125 E5.88203
G1 X59.920 Y0.099 E6.26006
G1 X59.471 Y7.321 E6.63809
G1 X58.155 Y14.436 E7.01612
G1 X55.991 Y21.340 E7.39416
G1 X53.011 Y27.934 E7.77219
G1 X49.257 Y34.120 E8.15022
G1 X44.771 Y39.794 E8.52813
G1 X39.660 Y44.916 E8.90616
G1 X33.957 Y49.369 E9.28420
G1 X27.759 Y53.102 E9.66223
G1 X21.156 Y56.061 E10.04026
G1 X14.244 Y58.203 E10.41829
G1 X7.125 Y59.495 E10.79633
G1 X-0.099 Y59.920 E11.17436
G1 X-7.321 Y59.471 E11.55239
G1 X-14.436 Y58.155 E11.93042
G1 X-21.340 Y55.991 E12.30846
G1 X-27.934 Y53.011 E12.68649
G1 X-34.120 Y49.257 E13.06452
G1 X-39.808 Y44.785 E13.44256
G1 X-44.916 Y39.660 E13.82059
G1 X-49.369 Y33.957 E14.19862
G1 X-53.102 Y27.759 E14.57665
G1 X-56.061 Y21.156 E14.95469
G1 X-58.203 Y14.244 E15.33272
G1 X-59.495 Y7.125 E15.71075
G1 X-59.920 Y-0.099 E16.08878
G1 X-59.471 Y-7.321 E16.46682
G1 X-58.155 Y-14.436 E16.84485
G1 X-55.991 Y-21.340 E17.22288
G1 X-53.011 Y-27.934 E17.60091
G1 X-49.257 Y-34.120 E17.97895
G1 X-44.868 Y-39.685 E18.34925
G1 X-39.660 Y-44.916 E18.73489
G1 X-33.957 Y-49.369 E19.11292
G1 X-27.759 Y-53.102 E19.49095
G1 X-21.156 Y-56.061 E19.86899
G1 X-14.244 Y-58.203 E20.24702
G1 X-7.125 Y-59.495 E20.62505
G1 X-6.505 Y-59.516 E20.65746
G1 F1200.000 E19.65746
G92 E0
G1 Z0.600 F7800.000
G1 X6.473 Y-59.506
G1 F1200.000 E1.00000
G1 X7.523 Y-59.433 F1260.000 E1.05495
G1 X14.632 Y-58.093 E1.43290
G1 X21.335 Y-55.980 E1.80009
G1 X27.927 Y-53.000 E2.17805
G1 X34.112 Y-49.248 E2.55600
G1 X39.543 Y-44.995 E2.91638
G1 X45.170 Y-39.336 E3.33332
G1 X49.359 Y-33.951 E3.68975
G1 X53.091 Y-27.754 E4.06771
G1 X56.049 Y-21.152 E4.44566
G1 X58.103 Y-14.567 E4.80604
G1 X59.520 Y-6.714 E5.22298
G1 X59.908 Y0.098 E5.57941
G1 X59.459 Y7.318 E5.95736
G1 X58.144 Y14.432 E6.33532
G1 X56.093 Y21.018 E6.69570
G1 X52.903 Y28.109 E7.10194
G1 X49.248 Y34.112 E7.46913
G1 X44.995 Y39.543 E7.82951
G1 X39.653 Y44.906 E8.22500
G1 X37.228 Y46.822 E8.38647
G1 X33.780 Y49.475 E8.61372
G1 X27.571 Y53.186 E8.99167
G1 X21.152 Y56.049 E9.35886
G1 X14.567 Y58.103 E9.71924
G1 X6.714 Y59.520 E10.13618
G1 X-0.098 Y59.908 E10.49261
G1 X-7.318 Y59.459 E10.87057
G1 X-14.432 Y58.144 E11.24852
G1 X-21.018 Y56.093 E11.60890
G1 X-28.109 Y52.903 E12.01514
G1 X-34.112 Y49.248 E12.38234
G1 X-39.543 Y44.995 E12.74272
G1 X-44.678 Y39.901 E13.12063
G1 X-46.822 Y37.228 E13.29965
G1 X-49.475 Y33.780 E13.52690
G1 X-53.186 Y27.571 E13.90485
G1 X-56.049 Y21.152 E14.27204
G1 X-58.103 Y14.567 E14.63242
G1 X-59.520 Y6.714 E15.04936
G1 X-59.908 Y-0.098 E15.40578
G1 X-59.459 Y-7.318 E15.78374
G1 X-58.218 Y-14.103 E16.14412
G1 X-57.236 Y-17.386 E16.32313
G1 X-55.906 Y-21.527 E16.55038
G1 X-53.000 Y-27.927 E16.91758
G1 X-49.248 Y-34.112 E17.29553
G1 X-44.995 Y-39.543 E17.65591
G1 X-39.336 Y-45.170 E18.07285
G1 X-33.951 Y-49.359 E18.42928
G1 X-28.049 Y-52.929 E18.78966
G1 X-20.763 Y-56.184 E19.20660
G1 X-14.242 Y-58.190 E19.56302
G1 X-7.124 Y-59.483 E19.94098
G1 X0.098 Y-59.908 E20.31893
G1 X6.473 Y-59.506 E20.65270
G1 F1200.000 E19.65270
G92 E0
G1 Z0.900 F7800.000
G1 X-6.582 Y-59.483
G1 F1200.000 E1.00000
G1 X-0.085 Y-59.900 F1260.000 E1.34016
G1 X6.775 Y-59.510 E1.69915
G1 X13.899 Y-58.259 E2.07702
G1 X16.591 Y-57.484 E2.22337
G1 X21.523 Y-55.898 E2.49402
G1 X27.923 Y-52.994 E2.86120
G1 X33.957 Y-49.345 E3.22965
G1 X39.382 Y-45.127 E3.58863
G1 X44.534 Y-40.051 E3.96650
G1 X45.295 Y-39.176 E4.02710
G1 X49.352 Y-33.948 E4.37283
G1 X52.999 Y-27.912 E4.74128
G1 X55.842 Y-21.656 E5.10026
G1 X56.672 Y-19.197 E5.23589
G1 X58.183 Y-14.241 E5.50655
G1 X59.475 Y-7.124 E5.88446
G1 X59.900 Y-0.085 E6.25290
G1 X59.510 Y6.775 E6.61188
G1 X58.259 Y13.899 E6.98975
G1 X57.972 Y15.023 E7.05035
G1 X55.973 Y21.331 E7.39609
G1 X52.994 Y27.923 E7.77399
G1 X49.345 Y33.957 E8.14244
G1 X45.239 Y39.239 E8.49195
G1 X39.794 Y44.771 E8.89747
G1 X39.176 Y45.295 E8.93982
G1 X33.948 Y49.352 E9.28556
G1 X27.912 Y52.999 E9.65400
G1 X21.656 Y55.842 E10.01298
G1 X19.197 Y56.672 E10.14861
G1 X14.241 Y58.183 E10.41927
G1 X7.124 Y59.475 E10.79718
G1 X0.085 Y59.900 E11.16562
G1 X-6.775 Y59.510 E11.52460
G1 X-13.899 Y58.259 E11.90247
G1 X-15.023 Y57.972 E11.96307
G1 X-21.331 Y55.973 E12.30881
G1 X-27.923 Y52.994 E12.68672
G1 X-33.957 Y49.345 E13.05516
G1 X-39.239 Y45.239 E13.40468
G1 X-41.405 Y43.189 E13.56045
G1 X-44.534 Y40.051 E13.79199
G1 X-45.295 Y39.176 E13.85259
G1 X-49.352 Y33.948 E14.19833
G1 X-52.999 Y27.912 E14.56677
G1 X-55.842 Y21.656 E14.92575
G1 X-56.672 Y19.197 E15.06139
G1 X-58.183 Y14.241 E15.33205
G1 X-59.475 Y7.124 E15.70995
G1 X-59.900 Y0.085 E16.07840
G1 X-59.510 Y-6.775 E16.43738
G1 X-58.259 Y-13.899 E16.81525
G1 X-57.972 Y-15.023 E16.87585
G1 X-55.973 Y-21.331 E17.22158
G1 X-52.994 Y-27.923 E17.59949
G1 X-49.345 Y-33.957 E17.96793
G1 X-45.127 Y-39.382 E18.32691
G1 X-40.051 Y-44.534 E18.70478
G1 X-39.176 Y-45.295 E18.76538
G1 X-33.948 Y-49.352 E19.11112
G1 X-27.751 Y-53.084 E19.48903
G1 X-21.320 Y-55.977 E19.85747
G1 X-14.767 Y-58.045 E20.21645
G1 X-7.663 Y-59.402 E20.59432
G1 X-6.582 Y-59.483 E20.65095
G1 F1200.000 E19.65095
G92 E0
G1 Z1.200 F7800.000
G1 X6.474 Y-59.481
G1 F1200.000 E1.00000
G1 X8.158 Y-59.320 F1260.000 E1.08834
G1 X13.690 Y-58.300 E1.38226
G1 X15.248 Y-57.904 E1.46626
G1 X21.334 Y-55.972 E1.79986
G1 X27.926 Y-52.992 E2.17777
G1 X33.954 Y-49.347 E2.54580
G1 X39.215 Y-45.260 E2.89390
G1 X40.260 Y-44.334 E2.96683
G1 X44.251 Y-40.338 E3.26188
G1 X45.442 Y-38.992 E3.35580
G1 X49.354 Y-33.945 E3.68940
G1 X53.085 Y-27.748 E4.06731
G1 X55.976 Y-21.324 E4.43534
G1 X57.984 Y-14.971 E4.78344
G1 X58.318 Y-13.616 E4.85637
G1 X59.332 Y-8.060 E5.15143
G1 X59.548 Y-6.276 E5.24534
G1 X59.900 Y0.100 E5.57895
G1 X59.474 Y7.132 E5.94698
G1 X58.300 Y13.690 E6.29507
G1 X57.904 Y15.248 E6.37907
G1 X55.972 Y21.334 E6.71268
G1 X52.992 Y27.926 E7.09058
G1 X49.347 Y33.954 E7.45861
G1 X45.260 Y39.215 E7.80671
G1 X41.186 Y43.408 E8.11213
G1 X38.992 Y45.442 E8.26845
G1 X33.945 Y49.354 E8.60205
G1 X27.748 Y53.085 E8.97996
G1 X21.324 Y55.976 E9.34799
G1 X14.971 Y57.984 E9.69609
G1 X13.616 Y58.318 E9.76902
G1 X8.060 Y59.332 E10.06408
G1 X6.276 Y59.548 E10.15799
G1 X-0.100 Y59.900 E10.49160
G1 X-7.132 Y59.474 E10.85963
G1 X-13.690 Y58.300 E11.20772
G1 X-15.248 Y57.904 E11.29172
G1 X-21.334 Y55.972 E11.62532
G1 X-27.926 Y52.992 E12.00323
G1 X-33.954 Y49.347 E12.37126
G1 X-39.215 Y45.260 E12.71936
G1 X-43.408 Y41.186 E13.02478
G1 X-45.442 Y38.992 E13.18110
G1 X-49.354 Y33.945 E13.51470
G1 X-53.085 Y27.748 E13.89261
G1 X-55.976 Y21.324 E14.26064
G1 X-57.984 Y14.971 E14.60874
G1 X-58.318 Y13.616 E14.68167
G1 X-59.332 Y8.060 E14.97673
G1 X-59.548 Y6.276 E15.07064
G1 X-59.900 Y-0.100 E15.40425
G1 X-59.474 Y-7.132 E15.77228
G1 X-58.300 Y-13.690 E16.12037
G1 X-57.904 Y-15.248 E16.20437
G1 X-55.972 Y-21.334 E16.53797
G1 X-52.992 Y-27.926 E16.91588
G1 X-49.347 Y-33.954 E17.28391
G1 X-45.260 Y-39.215 E17.63201
G1 X-44.334 Y-40.260 E17.70494
G1 X-40.338 Y-44.251 E18.00000
G1 X-38.992 Y-45.442 E18.09391
G1 X-33.945 Y-49.354 E18.42752
G1 X-27.748 Y-53.085 E18.80542
G1 X-21.324 Y-55.976 E19.17345
G1 X-15.153 Y-57.928 E19.51161
G1 X-13.408 Y-58.358 E19.60553
G1 X-7.873 Y-59.366 E19.89944
G1 X-6.487 Y-59.534 E19.97237
G1 X0.100 Y-59.900 E20.31706
G1 X6.474 Y-59.481 E20.65079
G1 F1200.000 E19.65079
G92 E0
G1 Z1.500 F7800.000
G1 X6.476 Y-59.483
G1 F1200.000 E1.00000
G1 X7.129 Y-59.474 F1260.000 E1.03412
G1 X8.572 Y-59.244 E1.11046
G1 X13.863 Y-58.263 E1.39160
G1 X15.448 Y-57.841 E1.47731
G1 X21.334 Y-55.972 E1.79995
G1 X27.925 Y-52.992 E2.17786
G1 X33.951 Y-49.349 E2.54576
G1 X39.047 Y-45.393 E2.88278
G1 X40.408 Y-44.185 E2.97786
G1 X44.096 Y-40.494 E3.25045
G1 X45.571 Y-38.827 E3.36677
G1 X49.353 Y-33.945 E3.68941
G1 X53.085 Y-27.748 E4.06732
G1 X55.975 Y-21.327 E4.43522
G1 X57.921 Y-15.176 E4.77224
G1 X58.355 Y-13.409 E4.86732
G1 X59.294 Y-8.277 E5.13991
G1 X59.560 Y-6.066 E5.25623
G1 X59.900 Y0.100 E5.57887
G1 X59.474 Y7.129 E5.94677
G1 X58.301 Y13.671 E6.29402
G1 X57.779 Y15.650 E6.40097
G1 X55.972 Y21.334 E6.71257
G1 X52.992 Y27.925 E7.09047
G1 X49.349 Y33.951 E7.45837
G1 X45.270 Y39.199 E7.80562
G1 X43.906 Y40.685 E7.91102
G1 X39.942 Y44.626 E8.20304
G1 X38.661 Y45.702 E8.29046
G1 X33.945 Y49.353 E8.60205
G1 X27.748 Y53.085 E8.97995
G1 X21.327 Y55.975 E9.34785
G1 X15.176 Y57.921 E9.68488
G1 X13.409 Y58.355 E9.77996
G1 X8.277 Y59.294 E10.05254
G1 X6.066 Y59.560 E10.16886
G1 X-0.100 Y59.900 E10.49151
G1 X-7.129 Y59.474 E10.85941
G1 X-13.671 Y58.301 E11.20665
G1 X-15.650 Y57.779 E11.31361
G1 X-21.334 Y55.972 E11.62520
G1 X-27.925 Y52.992 E12.00311
G1 X-33.951 Y49.349 E12.37101
G1 X-39.199 Y45.270 E12.71825
G1 X-40.408 Y44.185 E12.80312
G1 X-44.233 Y40.355 E13.08593
G1 X-45.702 Y38.661 E13.20309
G1 X-49.354 Y33.945 E13.51468
G1 X-53.085 Y27.748 E13.89258
G1 X-55.975 Y21.327 E14.26048
G1 X-57.921 Y15.176 E14.59751
G1 X-58.355 Y13.409 E14.69259
G1 X-59.294 Y8.277 E14.96517
G1 X-59.560 Y6.066 E15.08149
G1 X-59.900 Y-0.100 E15.40414
G1 X-59.474 Y-7.129 E15.77204
G1 X-58.301 Y-13.671 E16.11928
G1 X-57.779 Y-15.650 E16.22624
G1 X-55.972 Y-21.334 E16.53783
G1 X-52.992 Y-27.925 E16.91574
G1 X-49.349 Y-33.951 E17.28364
G1 X-45.393 Y-39.047 E17.62066
G1 X-44.770 Y-39.796 E17.67157
G1 X-41.194 Y-43.401 E17.93685
G1 X-39.790 Y-44.775 E18.03948
G1 X-38.827 Y-45.571 E18.10478
G1 X-33.945 Y-49.354 E18.42742
G1 X-27.748 Y-53.085 E18.80533
G1 X-21.327 Y-55.975 E19.17322
G1 X-15.364 Y-57.864 E19.50003
G1 X-12.993 Y-58.434 E19.62739
G1 X-7.891 Y-59.361 E19.89831
G1 X-6.277 Y-59.545 E19.98318
G1 X0.100 Y-59.900 E20.31688
G1 X6.476 Y-59.483 E20.65070
G1 F1200.000 E19.65070
G92 E0
G1 Z1.800 F7800.000
G1 X6.478 Y-59.486
G1 F1200.000 E1.00000
G1 X7.319 Y-59.451 F1260.000 E1.04399
G1 X12.875 Y-58.452 E1.33894
G1 X14.244 Y-58.182 E1.41181
G1 X15.647 Y-57.778 E1.48808
G1 X21.334 Y-55.972 E1.79983
G1 X27.925 Y-52.992 E2.17773
G1 X33.950 Y-49.350 E2.54555
G1 X39.188 Y-45.276 E2.89223
G1 X39.796 Y-44.770 E2.93356
G1 X43.938 Y-40.647 E3.23892
G1 X45.698 Y-38.662 E3.37752
G1 X49.353 Y-33.945 E3.68927
G1 X53.085 Y-27.749 E4.06718
G1 X55.974 Y-21.328 E4.43499
G1 X57.856 Y-15.382 E4.76085
G1 X58.183 Y-14.238 E4.82301
G1 X58.547 Y-12.374 E4.92226
G1 X59.421 Y-7.510 E5.18042
G1 X59.556 Y-6.069 E5.25605
G1 X59.900 Y0.100 E5.57883
G1 X59.475 Y7.127 E5.94664
G1 X58.222 Y14.049 E6.31414
G1 X57.654 Y16.050 E6.42284
G1 X55.972 Y21.334 E6.71254
G1 X52.992 Y27.925 E7.09044
G1 X49.350 Y33.950 E7.45826
G1 X45.150 Y39.342 E7.81535
G1 X39.794 Y44.771 E8.21378
G1 X38.331 Y45.960 E8.31230
G1 X33.945 Y49.353 E8.60200
G1 X27.749 Y53.085 E8.97990
G1 X21.328 Y55.974 E9.34772
G1 X15.191 Y57.914 E9.68399
G1 X13.410 Y58.349 E9.77978
G1 X8.492 Y59.254 E10.04103
G1 X5.858 Y59.571 E10.17964
G1 X-0.100 Y59.900 E10.49139
G1 X-7.127 Y59.475 E10.85920
G1 X-14.049 Y58.222 E11.22670
G1 X-16.050 Y57.654 E11.33540
G1 X-21.334 Y55.972 E11.62510
G1 X-27.925 Y52.992 E12.00300
G1 X-33.950 Y49.350 E12.37082
G1 X-39.342 Y45.150 E12.72791
G1 X-44.774 Y39.791 E13.12654
G1 X-45.960 Y38.331 E13.22486
G1 X-49.353 Y33.945 E13.51456
G1 X-53.085 Y27.749 E13.89246
G1 X-55.974 Y21.328 E14.26028
G1 X-57.914 Y15.191 E14.59655
G1 X-58.349 Y13.410 E14.69234
G1 X-59.254 Y8.492 E14.95359
G1 X-59.571 Y5.858 E15.09220
G1 X-59.900 Y-0.100 E15.40395
G1 X-59.475 Y-7.127 E15.77176
G1 X-58.222 Y-14.049 E16.13926
G1 X-57.654 Y-16.050 E16.24796
G1 X-55.972 Y-21.334 E16.53766
G1 X-52.992 Y-27.925 E16.91556
G1 X-49.350 Y-33.950 E17.28338
G1 X-45.276 Y-39.188 E17.63006
G1 X-44.770 Y-39.796 E17.67139
G1 X-40.362 Y-44.217 E17.99757
G1 X-38.496 Y-45.830 E18.12640
G1 X-33.945 Y-49.353 E18.42712
G1 X-27.749 Y-53.085 E18.80503
G1 X-21.328 Y-55.974 E19.17284
G1 X-15.573 Y-57.799 E19.48830
G1 X-14.238 Y-58.183 E19.56086
G1 X-12.789 Y-58.470 E19.63805
G1 X-7.707 Y-59.388 E19.90786
G1 X-6.279 Y-59.540 E19.98286
G1 X0.100 Y-59.900 E20.31666
G1 X6.478 Y-59.486 E20.65059
G1 F1200.000 E19.65059
G92 E0
G1 Z2.100 F7800.000
G1 X6.480 Y-59.490
G1 F1200.000 E1.00000
G1 X7.319 Y-59.451 F1260.000 E1.04386
G1 X13.054 Y-58.416 E1.34836
G1 X14.431 Y-58.136 E1.42178
G1 X16.045 Y-57.653 E1.50975
G1 X21.334 Y-55.972 E1.79969
G1 X27.925 Y-52.993 E2.17760
G1 X34.109 Y-49.240 E2.55551
G1 X39.650 Y-44.899 E2.92327
G1 X44.773 Y-39.792 E3.30118
G1 X45.955 Y-38.333 E3.39929
G1 X49.353 Y-33.945 E3.68924
G1 X53.085 Y-27.749 E4.06715
G1 X55.974 Y-21.330 E4.43491
G1 X57.965 Y-15.008 E4.78118
G1 X58.425 Y-12.999 E4.88886
G1 X59.352 Y-7.912 E5.15902
G1 X59.596 Y-5.442 E5.28868
G1 X59.900 Y0.099 E5.57863
G1 X59.475 Y7.126 E5.94639
G1 X58.182 Y14.243 E6.32430
G1 X57.405 Y16.849 E6.46639
G1 X55.972 Y21.334 E6.71236
G1 X52.993 Y27.925 E7.09026
G1 X49.240 Y34.109 E7.46817
G1 X44.899 Y39.650 E7.83594
G1 X39.794 Y44.771 E8.21371
G1 X37.838 Y46.346 E8.34494
G1 X33.945 Y49.353 E8.60190
G1 X27.749 Y53.085 E8.97981
G1 X21.148 Y56.043 E9.35772
G1 X14.427 Y58.137 E9.72548
G1 X7.315 Y59.452 E10.10339
G1 X4.812 Y59.637 E10.23449
G1 X-0.099 Y59.900 E10.49145
G1 X-7.126 Y59.475 E10.85922
G1 X-14.243 Y58.182 E11.23712
G1 X-16.849 Y57.405 E11.37922
G1 X-21.334 Y55.972 E11.62518
G1 X-27.925 Y52.993 E12.00309
G1 X-34.109 Y49.240 E12.38100
G1 X-39.650 Y44.899 E12.74876
G1 X-44.773 Y39.792 E13.12667
G1 X-46.346 Y37.838 E13.25777
G1 X-49.353 Y33.945 E13.51473
G1 X-53.085 Y27.749 E13.89264
G1 X-56.043 Y21.148 E14.27054
G1 X-58.137 Y14.427 E14.63831
G1 X-59.452 Y7.315 E15.01621
G1 X-59.637 Y4.812 E15.14732
G1 X-59.900 Y-0.099 E15.40428
G1 X-59.475 Y-7.126 E15.77204
G1 X-58.182 Y-14.243 E16.14995
G1 X-57.405 Y-16.849 E16.29204
G1 X-55.972 Y-21.334 E16.53801
G1 X-52.993 Y-27.925 E16.91591
G1 X-49.240 Y-34.109 E17.29382
G1 X-44.899 Y-39.650 E17.66159
G1 X-39.792 Y-44.773 E18.03949
G1 X-38.333 Y-45.955 E18.13761
G1 X-33.945 Y-49.353 E18.42755
G1 X-27.749 Y-53.085 E18.80546
G1 X-21.330 Y-55.974 E19.17323
G1 X-15.588 Y-57.791 E19.48787
G1 X-14.239 Y-58.183 E19.56129
G1 X-7.121 Y-59.475 E19.93919
G1 X-0.095 Y-59.900 E20.30696
G1 X6.480 Y-59.490 E20.65115
G1 F1200.000 E19.65115
G92 E0
G1 Z2.400 F7800.000
G1 X-6.703 Y-59.499
G1 F1200.000 E1.00000
G1 X-0.096 Y-59.900 F1260.000 E1.34582
G1 X4.888 Y-59.628 E1.60662
G1 X7.318 Y-59.451 E1.73391
G1 X14.431 Y-58.136 E2.11181
G1 X21.151 Y-56.042 E2.47955
G1 X27.752 Y-53.083 E2.85746
G1 X33.948 Y-49.351 E3.23536
G1 X38.055 Y-46.169 E3.50681
G1 X39.795 Y-44.770 E3.62345
G1 X44.901 Y-39.647 E4.00136
G1 X49.353 Y-33.946 E4.37926
G1 X52.994 Y-27.922 E4.74700
G1 X55.973 Y-21.331 E5.12490
G1 X57.186 Y-17.550 E5.33232
G1 X58.183 Y-14.239 E5.51299
G1 X59.475 Y-7.122 E5.89090
G1 X59.900 Y-0.096 E6.25863
G1 X59.693 Y3.869 E6.46605
G1 X59.451 Y7.318 E6.64673
G1 X58.136 Y14.431 E7.02463
G1 X56.042 Y21.151 E7.39237
G1 X53.083 Y27.752 E7.77027
G1 X49.351 Y33.948 E8.14818
G1 X46.929 Y37.094 E8.35559
G1 X44.771 Y39.794 E8.53620
G1 X39.647 Y44.901 E8.91418
G1 X33.946 Y49.353 E9.29208
G1 X27.922 Y52.994 E9.65982
G1 X21.331 Y55.973 E10.03772
G1 X17.550 Y57.186 E10.24514
G1 X14.239 Y58.183 E10.42581
G1 X7.122 Y59.475 E10.80372
G1 X0.096 Y59.900 E11.17145
G1 X-3.869 Y59.693 E11.37887
G1 X-7.318 Y59.451 E11.55955
G1 X-14.431 Y58.136 E11.93745
G1 X-21.333 Y55.972 E12.31536
