; generated by Slic3r 0.9.9 on 2014-03-07 at 20:57:15

; layer_height = 0.3
; perimeters = 3
; top_solid_layers = 3
; bottom_solid_layers = 3
; fill_density = 0.15
; perimeter_speed = 30
; infill_speed = 60
; travel_speed = 130
; nozzle_diameter = 0.4
; filament_diameter = 1.75
; extrusion_multiplier = 1
; perimeters extrusion width = 0.42mm
; infill extrusion width = 0.42mm
; solid infill extrusion width = 0.42mm
; top infill extrusion width = 0.42mm

G21 ; set units to millimeters
G1 Z5 F800 ; lift nozzle
G90 ; use absolute coordinates
G92 E0
M82 ; use absolute distances for extrusion
G1 F1200.000 E-1.00000
G92 E0
G1 Z0.300 F7800.000
G1 X6.674 Y-37.253
G1 F1200.000 E1.00000
G1 X36.970 Y-37.260 F378.000 E2.58284
G1 X37.228 Y-37.182 E2.59691
G1 X37.211 Y37.211 E6.48359
G1 X-37.211 Y37.211 E10.37179
G1 X-37.211 Y-37.211 E14.25999
G1 X6.674 Y-37.253 E16.55276
G1 F1200.000 E15.55276
G92 E0
G1 Z0.600 F7800.000
G1 X6.674 Y-37.253
G1 F1200.000 E1.00000
G1 X36.970 Y-37.260 F1260.000 E2.58284
G1 X37.228 Y-37.182 E2.59691
G1 X37.211 Y37.211 E6.48359
G1 X-37.211 Y37.211 E10.37179
G1 X-37.211 Y-37.211 E14.25999
G1 X6.674 Y-37.253 E16.55276
G1 F1200.000 E15.55276
G92 E0
G1 Z0.900 F7800.000
G1 X6.674 Y-37.253
G1 F1200.000 E1.00000
G1 X36.970 Y-37.260 F1260.000 E2.58284
G1 X37.228 Y-37.182 E2.59691
G1 X37.211 Y37.211 E6.48359
G1 X-37.211 Y37.211 E10.37179
G1 X-37.211 Y-37.211 E14.25999
G1 X6.674 Y-37.253 E16.55276
G1 F1200.000 E15.55276
G92 E0
G1 Z1.200 F7800.000
G1 X6.674 Y-37.253
G1 F1200.000 E1.00000
G1 X36.970 Y-37.260 F1260.000 E2.58284
G1 X37.228 Y-37.182 E2.59691
G1 X37.211 Y37.211 E6.48359
G1 X-37.211 Y37.211 E10.37179
G1 X-37.211 Y-37.211 E14.25999
G1 X6.674 Y-37.253 E16.55276
G1 F1200.000 E15.55276
G92 E0
G1 Z1.500 F7800.000
G1 X6.674 Y-37.253
G1 F1200.000 E1.00000
G1 X36.970 Y-37.260 F1260.000 E2.58284
G1 X37.228 Y-37.182 E2.59691
G1 X37.211 Y37.211 E6.48359
G1 X-37.211 Y37.211 E10.37179
G1 X-37.211 Y-37.211 E14.25999
G1 X6.674 Y-37.253 E16.55276
G1 F1200.000 E15.55276
G92 E0
G1 Z1.800 F7800.000
G1 X6.674 Y-37.253
G1 F1200.000 E1.00000
G1 X36.970 Y-37.260 F1260.000 E2.58284
G1 X37.228 Y-37.182 E2.59691
G1 X37.211 Y37.211 E6.48359
G1 X-37.211 Y37.211 E10.37179
G1 X-37.211 Y-37.211 E14.25999
G1 X6.674 Y-37.253 E16.55276
G1 F1200.000 E15.55276
G92 E0
G1 Z2.100 F7800.000
G1 X6.674 Y-37.253
G1 F1200.000 E1.00000
G1 X36.970 Y-37.260 F1260.000 E2.58284
G1 X37.228 Y-37.182 E2.59691
G1 X37.211 Y37.211 E6.48359
G1 X-37.211 Y37.211 E10.37179
G1 X-37.211 Y-37.211 E14.25999
G1 X6.674 Y-37.253 E16.55276
G1 F1200.000 E15.55276
G92 E0
G1 Z2.400 F7800.000
G1 X6.674 Y-37.253
G1 F1200.000 E1.00000
G1 X36.970 Y-37.260 F1260.000 E2.58284
G1 X37.228 Y-37.182 E2.59691
G1 X37.211 Y37.211 E6.48359
G1 X-37.211 Y37.211 E10.37179
G1 X-37.211 Y-37.211 E14.25999
G1 X6.674 Y-37.253 E16.55276
G1 F1200.000 E15.55276
G92 E0
G1 Z2.700 F7800.000
G1 X6.674 Y-37.253
G1 F1200.000 E1.00000
G1 X36.970 Y-37.260 F1260.000 E2.58284
G1 X37.228 Y-37.182 E2.59691
G1 X37.211 Y37.211 E6.48359
G1 X-37.211 Y37.211 E10.37179
G1 X-37.211 Y-37.211 E14.25999
G1 X6.674 Y-37.253 E16.55276
G1 F1200.000 E15.55276
G92 E0
G1 Z3.000 F7800.000
G1 X6.674 Y-37.253
G1 F1200.000 E1.00000
G1 X36.970 Y-37.260 F1260.000 E2.58284
G1 X37.228 Y-37.182 E2.59691
G1 X37.211 Y37.211 E6.48359
G1 X-37.211 Y37.211 E10.37179
G1 X-37.211 Y-37.211 E14.25999
G1 X6.674 Y-37.253 E16.55276
G1 F1200.000 E15.55276
G92 E0
G1 Z3.300 F7800.000
G1 X6.674 Y-37.253
G1 F1200.000 E1.00000
G1 X36.970 Y-37.260 F1260.000 E2.58284
G1 X37.228 Y-37.182 E2.59691
G1 X37.211 Y37.211 E6.48359
G1 X-37.211 Y37.211 E10.37179
G1 X-37.211 Y-37.211 E14.25999
G1 X6.674 Y-37.253 E16.55276
G1 F1200.000 E15.55276
G92 E0
G1 Z3.600 F7800.000
G1 X6.674 Y-37.253
G1 F1200.000 E1.00000
G1 X36.970 Y-37.260 F1260.000 E2.58284
G1 X37.228 Y-37.182 E2.59691
G1 X37.211 Y37.211 E6.48359
G1 X-37.211 Y37.211 E10.37179
G1 X-37.211 Y-37.211 E14.25999
G1 X6.674 Y-37.253 E16.55276
G1 F1200.000 E15.55276
G92 E0
G1 Z3.900 F7800.000
G1 X6.674 Y-37.253
G1 F1200.000 E1.00000
G1 X36.970 Y-37.260 F1260.000 E2.58284
G1 X37.228 Y-37.182 E2.59691
G1 X37.211 Y37.211 E6.48359
G1 X-37.211 Y37.211 E10.37179
G1 X-37.211 Y-37.211 E14.25999
G1 X6.674 Y-37.253 E16.55276
G1 F1200.000 E15.55276
G92 E0
G1 Z4.200 F7800.000
G1 X6.674 Y-37.253
G1 F1200.000 E1.00000
G1 X36.970 Y-37.260 F1260.000 E2.58284
G1 X37.228 Y-37.182 E2.59691
G1 X37.211 Y37.211 E6.48359
G1 X-37.211 Y37.211 E10.37179
G1 X-37.211 Y-37.211 E14.25999
G1 X6.674 Y-37.253 E16.55276
G1 F1200.000 E15.55276
G92 E0
G1 Z4.500 F7800.000
G1 X6.674 Y-37.253
G1 F1200.000 E1.00000
G1 X36.970 Y-37.260 F1260.000 E2.58284
G1 X37.228 Y-37.182 E2.59691
G1 X37.211 Y37.211 E6.48359
G1 X-37.211 Y37.211 E10.37179
G1 X-37.211 Y-37.211 E14.25999
G1 X6.674 Y-37.253 E16.55276
G1 F1200.000 E15.55276
G92 E0
G1 Z4.800 F7800.000
G1 X6.674 Y-37.253
G1 F1200.000 E1.00000
G1 X36.970 Y-37.260 F1260.000 E2.58284
G1 X37.228 Y-37.182 E2.59691
G1 X37.211 Y37.211 E6.48359
G1 X-37.211 Y37.211 E10.37179
G1 X-37.211 Y-37.211 E14.25999
G1 X6.674 Y-37.253 E16.55276
G1 F1200.000 E15.55276
G92 E0
G1 Z5.100 F7800.000
G1 X6.674 Y-37.253
G1 F1200.000 E1.00000
G1 X36.970 Y-37.260 F1260.000 E2.58284
G1 X37.228 Y-37.182 E2.59691
G1 X37.211 Y37.211 E6.48359
G1 X-37.211 Y37.211 E10.37179
G1 X-37.211 Y-37.211 E14.25999
G1 X6.674 Y-37.253 E16.55276
G1 F1200.000 E15.55276
G92 E0
M104 S0 ; turn off temperature
G1 X0 Y0 Z0 F1200  ; park XY axis
M0 ; stop all motors and heat
; filament used = 264.4mm (0.6cm3)
